projects/flag-game/flags/Iceland.svg

<svg viewBox="0 0 1000 720" xmlns="http://www.w3.org/2000/svg"><path d="m0 0h1000v720h-1000z" fill="#003897"/><path d="m280 0h160v720h-160zm-280 280h1000v160h-1000zm0 0" fill="#fff" fill-rule="evenodd"/><g stroke-linecap="square" stroke-miterlimit="3.239307"><path d="m280 0h160v720h-160zm0 0" fill="#fff" stroke="#fff"/><path d="m0 280h1000v160h-1000zm0 0" fill="#fff" stroke="#fff"/><path d="m320 0h80v720h-80zm0 0" fill="#d72828" stroke="#d72828"/><path d="m0 320h1000v80h-1000zm0 0" fill="#d72828" stroke="#d72828"/></g></svg>

<?xml version="1.0" encoding="UTF-8"?>
<svg xmlns="http://www.w3.org/2000/svg" xmlns:xlink="http://www.w3.org/1999/xlink" viewBox="0 0 1000 720" version="1.1">
<g id="surface570">
<rect x="0" y="0" width="1000" height="720" style="fill:rgb(0%,21.960449%,59.214783%);fill-opacity:1;stroke:none;"/>
<path style=" stroke:none;fill-rule:evenodd;fill:rgb(99.998474%,99.998474%,99.998474%);fill-opacity:1;" d="M 280 0 L 440 0 L 440 720 L 280 720 Z M 0 280 L 1000 280 L 1000 440 L 0 440 Z M 0 280 "/>
<path style="fill-rule:nonzero;fill:rgb(99.998474%,99.998474%,99.998474%);fill-opacity:1;stroke-width:1;stroke-linecap:square;stroke-linejoin:miter;stroke:rgb(99.998474%,99.998474%,99.998474%);stroke-opacity:1;stroke-miterlimit:3.239307;" d="M 280 0 L 440 0 L 440 720 L 280 720 Z M 280 0 "/>
<path style="fill-rule:nonzero;fill:rgb(99.998474%,99.998474%,99.998474%);fill-opacity:1;stroke-width:1;stroke-linecap:square;stroke-linejoin:miter;stroke:rgb(99.998474%,99.998474%,99.998474%);stroke-opacity:1;stroke-miterlimit:3.239307;" d="M 0 280 L 1000 280 L 1000 440 L 0 440 Z M 0 280 "/>
<path style="fill-rule:nonzero;fill:rgb(84.312439%,15.686035%,15.686035%);fill-opacity:1;stroke-width:1;stroke-linecap:square;stroke-linejoin:miter;stroke:rgb(84.312439%,15.686035%,15.686035%);stroke-opacity:1;stroke-miterlimit:3.239307;" d="M 320 0 L 400 0 L 400 720 L 320 720 Z M 320 0 "/>
<path style="fill-rule:nonzero;fill:rgb(84.312439%,15.686035%,15.686035%);fill-opacity:1;stroke-width:1;stroke-linecap:square;stroke-linejoin:miter;stroke:rgb(84.312439%,15.686035%,15.686035%);stroke-opacity:1;stroke-miterlimit:3.239307;" d="M 0 320 L 1000 320 L 1000 400 L 0 400 Z M 0 320 "/>
</g>
</svg>
